img/svg/icon_mark_green.svg

<svg width="43" height="57" viewBox="0 0 43 57" fill="none" xmlns="http://www.w3.org/2000/svg">
<path fill-rule="evenodd" clip-rule="evenodd" d="M43 21.3216C43 25.302 41.9002 29.0276 39.9855 32.2158H40.0216L39.8338 32.4647C39.1414 33.5827 38.3479 34.6325 37.4661 35.6016L21.3145 57L5.49113 35.5544C2.07683 31.78 0 26.7914 0 21.3216C0 9.54603 9.62588 0 21.5 0C33.3741 0 43 9.54603 43 21.3216ZM21.5 30.2057C26.4475 30.2057 30.4583 26.2282 30.4583 21.3216C30.4583 16.4151 26.4475 12.4376 21.5 12.4376C16.5525 12.4376 12.5417 16.4151 12.5417 21.3216C12.5417 26.2282 16.5525 30.2057 21.5 30.2057Z" fill="#A5FF14"/>
</svg>

<svg width="43" height="57" fill="none" xmlns="http://www.w3.org/2000/svg"><path fill-rule="evenodd" clip-rule="evenodd" d="M43 21.322c0 3.98-1.1 7.706-3.014 10.894h.036l-.188.249a21.42 21.42 0 01-2.368 3.137L21.314 57 5.491 35.554A21.144 21.144 0 010 21.322C0 9.546 9.626 0 21.5 0S43 9.546 43 21.322zm-21.5 8.884c4.948 0 8.958-3.978 8.958-8.884 0-4.907-4.01-8.884-8.958-8.884s-8.958 3.977-8.958 8.884c0 4.906 4.01 8.884 8.958 8.884z" fill="#A5FF14"/></svg>
